!!!!SEGMENT: pl-cz--i-37--006_jarecki-jozef--requiem-agnus.krn
!!!cenid: 18xx:851
!!!COM: Jarecki, Józef
!!!COM-rism: pe41001558
!!!CDT: 1818/08/02-1871/12/23
!!!CNT: Polish
!!!OTL: Requiem – Agnus
!!!PDT:
!!!AGN: Sacred; Requiem
!!!SMS-siglum: PL-CZ
!!!SMS-shelfmark: I-37
!!!NIFC-rismID: 300000525
!!!URL-scan: http://repozytorium.nifc.pl/skany/pl-cz-nut--i-37
!!!ONB-nifc: UWAGA: części Requiem: Requiem, Dies irae, Domine Jesu Christe, Sanctus, Benedictus, Agnus, Lux aeterna
!!!SMS-variant:
!!!SMS-altvar:
**kern	**kern	**kern	**kern	**kern	**text
*part5	*part4	*part3	*part2	*part1	*part1
*staff5	*staff4	*staff3	*staff2	*staff1	*staff1
*	*	*I"Basso	*I"Tenore I	*I"Tenore I	*
*	*	*I'B	*I'T2	*I'T1	*
*clefF4	*clefG2	*clefF4	*clefG2	*clefG2	*
*	*	*	*Trd0c0	*Trd0c0	*
*k[b-]	*k[b-]	*k[b-]	*k[b-]	*k[b-]	*
*F:	*F:	*F:	*F:	*F:	*
*M4/4	*M4/4	*M4/4	*M4/4	*M4/4	*
*met(c)	*met(c)	*met(c)	*met(c)	*met(c)	*
!	!	!	!	!LO:TX:a:t=Agnus	!
4A\	4a/	4A\	4a/	4a/	A-
4A\	4a/	4A\	4a/	4a/	-gnus
=1	=1	=1	=1	=1	=1
*	*^	*	*	*	*
2D\	2a\ 2dd\ 2ff\	2ryy	4D\	4a/	4ff\	De-
.	.	.	8D\	8a/	8ff\	-i
.	.	.	8D\	8a/	8ff\	qui
4E\	4a\ 4cc#X\ 4ee\	4ryy	4E\	4a/	4ee\	tol-
8F\L	8dd/L	4e\ 4a\	8F\	8a/	8dd\	-lis
8F#X\J	8ccn/J	.	8F#X\	8a/	8cc\	pec-
*	*v	*v	*	*	*	*
=2	=2	=2	=2	=2	=2
2G\	4a/ 4cc/	4G\	4a/	4cc\	-ca-
.	2g/ 2b-/	4G\	4g/	4b-\	-ta
2A\	.	4r	4r	4r	.
.	4d/ 4f/ 4a/	4A\	4f/	4a/	pec-
=3	=3	=3	=3	=3	=3
*	*^	*	*	*	*
1BB-\ 1B-\	2c#X/ 2e/ 2a/	2ryy	4BB-\ 4B-\	4f/	4a/	-ca-
.	.	.	4BB-\ 4B-\	4f/	4g#X/	-ta
.	2g#X/	4r	2BB-\ 2B-\	(4f/	2g#/	mun-
.	.	4d\	.	4d/)	.	.
*	*v	*v	*	*	*	*
=4	=4	=4	=4	=4	=4
2AA\ 2A\	2c#X/ 2e/ 2a/	2AA\ 2A\	2e/	2a/	-di
4A\	4a/	4A\	4a/	4a/	A-
4A\	4a/	4A\	4a/	4a/	-gnus
=5	=5	=5	=5	=5	=5
2G\	2e\ 2b-\ 2cc#X\	2G\	2b-\	2cc#X\	De-
2F\	2d\ 2a\ 2dd\	2F\	2a/	2dd\	-i
=6	=6	=6	=6	=6	=6
2C#X/	2a\ 2ee\ 2gg\	2C#X/	2a/	2gg\	qui
2D/	2a\ 2dd\ 2ff\	2D/	2a/	2ff\	tol-
=7	=7	=7	=7	=7	=7
2G\	2b-\ 2dd\ 2ee\	4G\	4b-\	4ee\	-lis
.	.	4G\	4b-\	4ee\	pec-
2A\	2a\ 2cc#X\ 2ee\	4A\	4cc#X\	4ee\	-ca-
.	.	4A\	4cc#\	4ee\	-ta
=8	=8	=8	=8	=8	=8
2D\	2f/ 2a/ 2dd/	2D\	2dd\	2dd\	mun-
[4d\	[4dd\	[4d\	[4dd\	[4dd\	-di
4d\]	4dd\]	4d\]	4dd\]	4dd\]	do-
!!LO:PB:g=original
=9	=9	=9	=9	=9	=9
*	*^	*^	*	*	*
2D\ 2d\	2a\ 2dd\ 2ff\	2ryy	4d/	4D\	4a/	4ff\	-na
.	.	.	8d/	8D\	8a/	8ff\	e-
.	.	.	8d/	8D\	8a/	8ff\	-is
4G\	2ee-X/	4b-\	4G\	2ryy	4b-/	4ee-X\	re-
4A\	.	4f\ 4cc\	8A\	.	8cc\	8ee-\	-qui-
.	.	.	8A\	.	8cc\	8ee-\	-em
*	*v	*v	*	*	*	*	*
*	*	*v	*v	*	*	*
=10	=10	=10	=10	=10	=10
2B-\	4cc/ 4ee-X/	4B-\	4cc\	4ee-X\	e-
.	4b-/ 4dd/	4B-\	4b-\	4dd\	-is
2G\	4r	4r	4r	4r	.
.	4g\ 4b-\ 4dd\	4G\	4b-\	4dd\	da
=11	=11	=11	=11	=11	=11
*	*^	*	*	*	*
!LO:SIC:s:o=:v:2E-	!	!	!	!	!	!
2E\	2.g/ 2.b-/ 2.cc/	2ryy	4E-X\	4g/	4cc\	sem-
.	.	.	4E-\	4g/	4cc\	-pi-
*	*	*^	*	*	*	*
2F\	.	2cc/	2f\	2F\	2a/	2cc\	-ter-
.	4a/	.	.	.	.	.	.
*	*	*v	*v	*	*	*	*
=12	=12	=12	=12	=12	=12	=12
*	*	*	*^	*	*	*
2BB-\ 2B-\	2d/ 2f/ 2b-/	2ryy	2B-/	2BB-\	2f/	2b-\	-nam
8B-\L	4g\ 4b-\ 4dd\	4ryy	8B-\L	2ryy	4f/	4dd\	A-
8A-X\	.	.	8A-X\J	.	.	.	.
8G\	8ee-X/L	4b-\	8G\L	.	4b-\	8ee-X\L	-gnus
8F\J	8ff/J	.	8F\J	.	.	8ff\J	.
*	*	*	*v	*v	*	*	*
=13	=13	=13	=13	=13	=13	=13
4E-X\	2ee-X/ 2gg/	1b-\	4E-X\	2b-\	2gg\	De-
4G\	.	.	4G\	.	.	.
2B-\	2dd/ 2ff/	.	2B-\	2dd\	2ff\	-i
=14	=14	=14	=14	=14	=14	=14
4F\	2a/ 2cc/ 2ee-X/	2ryy	4F\	4cc\	4ee-X\	qui
4F#X\	.	.	4F#X\	4cc\	4ee-\	tol-
4G\	4b-\ 4dd\	4ryy	4G\	4b-\	4dd\	-lis
4E-X\	8ff/L	4g\ 4cc\	4E-X\	4cc\	8ff\L	pec-
.	8ee-/J	.	.	.	8ee-\J	.
*	*v	*v	*	*	*	*
=15	=15	=15	=15	=15	=15
2F\	2f/ 2b-/ 2dd/	2Fn\	2b-\	2dd\	-ca-
2FF/	2e-X/ 2f/ 2a/ 2cc/	2FF/	2a\	2cc\	-ta
=16	=16	=16	=16	=16	=16
2BB-/	2d/ 2g/ 2b-/	2BB-/	2b-\	2b-\	mun-
4B-\	4b-/	4B-\	4b-\	4b-\	-di
4B-\	4b-/	4B-\	4b-\	4b-\	do-
!!LO:LB:g=original
=17	=17	=17	=17	=17	=17
1En\	1c#X/ 1g/ 1b-/	4En\	4g/	4b-\	-na
.	.	8E\	8g/	8b-\	e-
.	.	8E\	8g/	8b-\	-is
.	.	4E\	4g/	4b-\	re-
.	.	8E\	8g/	8b-\	-qui-
.	.	8E\	8g/	8b-\	-em
=18	=18	=18	=18	=18	=18
2F\	2cn/ 2f/ 2a/	4F\	4f/	4a/	e-
.	.	4F\	4f/	4a/	-is
4r	4r	4r	4r	4r	.
4D\	4d/ 4f/ 4a/	4D\	4f/	4a/	da
=19	=19	=19	=19	=19	=19
*	*^	*	*	*	*
*	*	*^	*	*	*	*
2BB-/	2d/ 2f/ 2g/	2ryy	2ryy	4BB-/	4d/	4g/	sem-
.	.	.	.	4BB-/	4d/	4g/	-pi-
2C/	4f\	2g/	2c\	2C/	4c/	2g/	-ter-
.	4e\	.	.	.	4e/	.	.
*	*v	*v	*v	*	*	*	*
=20	=20	=20	=20	=20	=20
2FF/ 2F/	2A/ 2c/	2FF/ 2F/	2f/	2f/	-nam
4F\	4c/ 4f/ 4a/	4F\	4f/	4a/	do-
4E-X\	4c/ 4f/ 4a/	4E-X\	4f/	4a/	-na
=21	=21	=21	=21	=21	=21
*	*	*	*^	*	*
2D\	2d/ 2f/ 2b-/	4D\	4f/	2ryy	4b-/	e-
.	.	4D\	4f/	.	4b-/	-is
2D-X\	2f/ 2a-X/ 2bn/	4D-X\	4a-X/	4f\	4bn/	re-
.	.	4D-\	4a-/	4f\	4b/	-qui-
=22	=22	=22	=22	=22	=22	=22
2C/	2f/ 2a/ 2cc/	2C/	2a/	2f\	2cc\	-em
2BBn/	2f/ 2a/ 2dd/	4BBn/	4a/	4f\	4dd\	sem-
.	.	4BB/	4a/	4f\	4dd\	-pi-
=23	=23	=23	=23	=23	=23	=23
4BB-X/	4g/ 4cc/ 4ee/	4BB-X/	4cc/	4g\	4ee\	-ter-
!	!LO:SIC:s:o=:v:dźwięk b- zbędny	!	!	!	!	!
4AA/	4f\ 4an\ 4b-\ 4cc\ 4ff\	4AA/	4cc/	4a\	4ff\	-nam
2r	2r	2r	2r	2r	2r	.
*	*	*	*v	*v	*	*
==	==	==	==	==	==
*-	*-	*-	*-	*-	*-
!!!system-decoration: s1,s2,s3,s4,s5
!!!ENC:Andrzej Borzym
!!!END:2020-07-21
!!!EED: Leszek Kubiak
!!!EST: 2020-09-24
